!!!ONB: MCCC : ILB0330_03 : Extracted Monophonic Melody
!!!COM: Beethoven, Ludwig van
!!!OPR: Violin Sonata No.9 in A major
!!!OMV: 3
!!!SCT: Op.47
!!!ODT: 1802///
**kern
*staff1
*clefG2
*k[f#c#g#]
*A:
*M6/8
8cc#
=2
4cc#
8cc#
4cc#
8cc#
=3
4cc#
8cc#
4cc#
8dd#
=4
4.ee
4cc#
8dd#
=5
4.ee
4cc#
8dd#
=6
4.ee[
8ee]
8ff#
8ee
=7
8dd
8ee
8dd
8cc#
8dd
8cc#
=8
8b
8dd
8ff#
8ee
8ff#
8ee
=9
8dd
8ee
8dd
8cc#
8dd
8cc#
=10
4.b
4r
8dd
=11
4dd
8dd
4dd
8dd
=12
4cc#
8a
4dd
8dd
=13
4cc#
8a
4dd
8dd
=14
4cc#
8a
4.cc[
=15
4cc]
8b
4dd#
8b
=16
4ee
8e
4.cc[
=17
4cc]
8b
4dd#
8b
=18
4ee
8e
4.r
=19
2.r
=20
2.r
=21
2.r
=22
4.r
8dd
8ee
8dd
=23
8cc#
8dd
8cc#
8b
8cc#
8b
=24
8a
8b
8a
8dd
8ee
8dd
=25
8cc#
8dd
8cc#
8b
8cc#
8b
=26
8a
8b
8a
8d
8e
8d
=27
8c#
8d
8c#
8B
8c#
8B
=28
4.c#
4.r
=29
2.r
=30
8a
8ee
8cc#
8aa
8ee
8ccc#
=31
8aa
8eee
8ddd
8ccc#
8bb
8aa
=32
4.ddd
4.r
=33
2.r
=34
8ddd
8ccc#
8bb
8aa
8gg#
8ff#
=35
8ee
8ff#
8ee
8dd
8cc#
8b
=36
4a
8a
4a
8b
=37
4cc#
8cc#
4cc#
8dd
=38
4.ee
4.r
=39
2.r
=40
4dd
8dd
4dd
8cc#
=41
4b
8b
4b
8a
=42
4.g#
4.gg#[
=43
2.gg#]
=44
4.a
4.aa[
=45
2.aa]
=46
4.f#
4.ff#[
=47
2.ff#]
=48
4.g#
4.gg#[
=49
2.gg#]
=50
4.e
4.ee
=51
4.a#
4.aa#
=52
4bb
8ff#
4ff#
8aa#
=53
4.bb
4.r
=54
4r
8ff#
4ff#
8aa#
=55
4.bb
4.r
=56
4r
8ff#
4ff#
8aa#
=57
4bb
8ff#
4ff#
8aa#
=58
4bb
8aa#
4bb
8aa#
=59
4bb
8aa#
4bb
8aa#
=60
4bb
8aa#
4bb
8aa#
=61
4bb
8aa
4gg#
8ff#
=62
4ee
8ee
4ee
8ff#
=63
4gg#
8gg#
4gg#
8aa
=64
4bb
8bb
4bb
8ddd#
=65
2.eee
=66
48eee
48ddd#[
12ddd#]
8r
8ddd#
4ddd#
8bb
=67
48ddd#
48ccc#[
12ccc#]
8r
8ccc#
4ccc#
8aa#
=68
4bb
8bb
4ccc#
8aa#
=69
2.bb
=70
4dd
8dd
4dd
8ee
=71
4ff#
8ff#
4ff#
8gg
=72
4aa
8aa
4aa
8ccc#
=73
2.ddd
=74
48ddd
48ccc#[
12ccc#]
8r
8ccc#
4ccc#
8aa
=75
48ccc#
48bb[
12bb]
8r
8bb
4bb
8gg#
=76
4aa
8aa
4bb
8gg#
=77
8aa
8cc#
8b
8a
8g#
8f#
=78
8e
8B
8e
8g#
8b
8g#
=79
8e
8B
8e
8g#
8b
8g#
=80
8e
8B
8e
8g#
8b
8g#
=81
8b
8g#
8b
8g
8b
8g
=82
8f#
8b
8dd#
8ff#
8ee
8dd#
=83
8ee
8cc#
8a#
8e
8f#
8e
=84
8d#
8f#
8d#
8e
8f#
8e
=85
8d#
8f#
8e
8d#
8c#
8B
=86
8f#
8A
8d
8f#
8a
8f#
=87
8d
8A
8d
8f#
8a
8f#
=88
8d
8A
8d
8f#
8a
8f#
=89
8a
8f#
8a
8e#
8a
8e#
=90
8e
8a
8cc#
8ee
8dd
8cc#
=91
8dd
8b
8g#
8d
8e
8d
=92
8c#
8e
8c#
8d
8e
8d
=93
8c#
8e
8g#
8a
8cc#
8ee
=94
4aa
8aa
4bb
8gg#
=95
2.aa
=96
4ccc#
8ccc#
4ddd
8bb
=97
4ccc#
8ccc#
4ddd
8bb
=98
4ccc#
8ccc#
4ddd
8bb
=99
4ccc#
8ccc#
4bb
8aa
=100
8gg#
8dd#
8ee
8ff#
8ee
8dd#
=101
2.ee
=102
8gg#
8ff#
8gg#
8aa
8gg#
8ff#
=103
2.gg#
=104
8gg#
8ff#
8gg#
8aa
8gg#
8ff#
=105
8gg#
8ff#
8gg#
8aa
8gg#
8ff#
=106
8gg#
8ff#
8gg#
8aa
8gg#
8ff#
=107
8gg#
8ff#
8gg#
8aa
8gg#
8ff#
=108
8gg#
8ff#
8gg#
8aa
8gg#
8ff#
=109
8ee
8dd#
8ee
8ff#
8ee
8dd#
=110
8cc#
8b#
8cc#
8dd#
8cc#
8b
=111
8a
8g#
8a
8b
8a
8g#
=112
4.f#
4.e
=113
4.f#
4.d#
=114
2.bb
=115
2.eee
=116
2.ccc#
=117
2.aa[
=118
4.aa]
4.aa[
=119
4.aa]
4.aa
=120
4.aa
4.aa
=121
4.aa
4.aa
=122
4.aa
4.ff#
=123
4.dd#
4.b
=124
4.a
4.f#
=125
4.d#
4.f#
=126
4.B
4.aa
=127
*M2/4
2gg#
=128
2ccc#
=129
2bb
=130
4aa
4aa
=131
4aa
4aa
=132
8gg#
8ff#
8ee
8ff#
=133
4gg#
4ee
=134
*M6/8
2.r
=135
*M2/4
2r
=136
2r
=137
2r
=138
2r
=139
2r
=140
2r
=141
2r
=142
4aa
4aa
=143
4aa
4aa
=144
8gg#
8ff#
8ee
8ff#
=145
4gg#
4ee
=146
2r
=147
2r
=148
*M6/8
2.r
=149
16d#
16e[
8e]
8e
16d#
16e
16d#
16e[
8e]
=150
16dd#
16ee[
8ee]
8ee
16dd#
16ee
16dd#
16ee[
8ee]
=151
16ee
16dd#
8ee
8dd#
16ee
16dd#
16ee
16cc#
8dd#
=152
4ee
8e
4e
8f#
=153
4g#
8g#
4g#
8a
=154
4.b
4.r
=155
2.r
=156
4g#
8g#
4g#
8a
=157
4b
8b
4b
8cc#
=158
2.dd[
=159
4dd]
8b
4b
8cc#
=160
2.dd[
=161
4dd]
8b
4b
8cc#
=162
4dd
8b
4b
8cc#
=163
4dd
8gg#
4gg#
8aa
=164
4bb
8gg#
4gg#
8aa
=165
4bb
8bb
4bb
8ccc#
=166
8ddd
8ccc#
8bb
8aa
8gg#
8ff#
=167
4.ee
4.r
=168
8dd
8cc#
8b
8a
8g#
8f#
=169
4.e
4.r
=170
2.r
=171
2.r
=172
2.r
=173
2.r
=174
2.r
=175
2.r
=176
2.r
=177
4.r
4r
8a
=178
4a
8a
4a
8a
=179
4a
8a
4a
8b
=180
4.cc
4a
8b
=181
4.cc
4a
8b
=182
8cc
8a
8b
8cc
8a
8b
=183
8cc
8a
8b
8cc
8a
8b
=184
8cc
8a
8b
8cc
8a
8b
=185
8cc
8a
8b
8cc
8a
8b
=186
4cc
8cc
4cc
8dd
=187
4ee
8ee
4ee
8ee#
=188
4gg
8gg
4gg
8bb
=189
2.ccc
=190
4bb
8bb
4bb
8gg
=191
4aa
8aa
4aa
8ff#
=192
4.gg
4.a#[
=193
4.a#]
4.c#
=194
4d
8dd
4dd
8ee
=195
4ee#
8ee#
4ee#
8gg
=196
4aa
8aa
4aa
8ccc#
=197
2.ddd
=198
4ccc
8ccc
4ccc
8aa
=199
4bb
8bb
4bb
8gg#
=200
4.aa
4.cc[
=201
4.cc]
4.d#
=202
8e
8B
8e
8g
8b
8g
=203
8e
8B
8e
8g
8b
8g
=204
8e
8B
8e
8g
8b
8g
=205
8b
8g
8b
8g
8cc
8b
=206
4.a#
4.r
=207
4r
8ee
4ee
8cc#
=208
2.dd[
=209
4dd]
8b
4b
8cc#
=210
2.dd[
=211
4dd]
8dd
4dd
8b
=212
2.cc[
=213
4cc]
8cc
4cc
8a
=214
4.e#
4.a
=215
4.e#
4.cc
=216
4.a
4.ee#
=217
4.cc
4.aa
=218
4.aa#
4.gg
=219
4.ee
4.a#
=220
4.g
4.e
=221
4.A#
4.a#
=222
4.a
4cc
8cc
=223
4.a
4ee#
8ee#
=224
4.cc
4aa
8aa
=225
4.ee#
4eee#
8eee#
=226
4.eee
4.aa#
=227
4.gg
4.ee
=228
4.a#
4.g
=229
4.e
4.A#
=230
4A
8a
4a
8b
=231
2.cc
=232
4b
8b
4b
8cc#
=233
2.dd
=234
4.cc
4.r
=235
4ee
8ee
4ee
8ff#
=236
2.gg
=237
4ff#
8ff#
4ff#
8gg#
=238
2.aa
=239
4aa
8gg#
4gg#
8aa
=240
2.bb[
=241
4bb]
8bb
4bb
8ccc
=242
2.ddd[
=243
4ddd]
8gg#
4gg#
8aa
=244
2.bb[
=245
4bb]
8e
4e
8e
=246
4e
8e
4e
8e
=247
2.e#[
=248
2.e#]
=249
4.e
4.r
=250
4r
8g#
4g#
8g#
=251
8a
8b
8cc
8dd
8ee
8ee#
=252
8gg
8aa
8bb
8ccc
8ddd
8ddd#
=253
4eee
8ee
4ee
8ee
=254
4ee
8ee
4ee
8ee
=255
2.ff#[
=256
2.ff#]
=257
2.ee[
=258
2.ee]
=259
2.dd[
=260
2.dd]
=261
2.cc#[
=262
2.cc#]
=263
2.b
=264
2.b
=265
2.b[
=266
2.b]
=267
4.b
4.ee
=268
4.r
4.ee
=269
4.r
4.ee
=270
4.r
4.ee
=271
4.ee
8gg#
8aa
8bb
=272
4.ee
8aa
8bb
8ccc#
=273
4.ee
8bb
8ccc#
8bb
=274
4.ee
8aa
8bb
8ccc#
=275
4.ee
4.ee
=276
4.r
4.ee
=277
4.r
4.ee
=278
4.r
4.ee
=279
4.ee
8gg#
8aa
8bb
=280
4.ee
8aa
8bb
8ccc
=281
4.ee
8bb
8ccc
8ddd
=282
4.ee
8aa
8bb
8ccc
=283
4.ee
8gg#
8aa
8bb
=284
2.r
=285
2.r
=286
2.r
=287
2.cc#
=288
2.cc#
=289
2.cc#
=290
4.cc#[
4cc#]
8cc#
=291
4cc#
8cc#
4cc#
8cc#
=292
4cc#
8cc#
4cc#
8dd#
=293
4.ee
4cc#
8dd#
=294
4.ee
4cc#
8dd#
=295
4.ee[
8ee]
8ff#
8ee
=296
8dd
8ee
8dd
8cc#
8dd
8cc#
=297
8b
8dd
8ff#
8ee
8ff#
8ee
=298
8dd
8ee
8dd
8cc#
8dd
8cc#
=299
8b
8d
8dd
8d
8dd
8d
=300
8dd
8d
8dd
8d
8dd
8d
=301
8c#
8d
8e
8f#
8e
8d
=302
8c#
8d
8e
8f#
8e
8d
=303
8c#
8d
8e
8f#
8e
8f#
=304
8g
8f#
8g
8a
8g
8a
=305
8b
8a
8cc#
8e
8d
8e
=306
8f#
8e
8f#
8g
8f#
8g
=307
8a
8g
8a
8dd
8ee
8dd
=308
8cc#
8dd
8cc#
8b
8cc#
8b
=309
8a
8b
8a
8dd
8ee
8dd
=310
8cc#
8dd
8cc#
8b
8cc#
8b
=311
8a
8b
8a
8d
8e
8d
=312
8c#
8d
8c#
8B
8c#
8B
=313
4.c#
4.r
=314
2.r
=315
8a
8ee
8cc#
8aa
8ee
8ccc#
=316
8aa
8eee
8ddd
8ccc#
8bb
8aa
=317
4.ddd
4.r
=318
2.r
=319
8ddd
8ccc#
8bb
8aa
8gg#
8ff#
=320
8ee
8ff#
8ee
8dd
8cc#
8b
=321
4a
8a
4a
8b
=322
4cc#
8cc#
4cc#
8dd
=323
2.ee
=324
2.ee
=325
2.dd
=326
2.dd
=327
2.cc#
=328
2.dd#
=329
4ee
8b
4b
8dd#
=330
4.ee
4.r
=331
4r
8b
4b
8dd#
=332
4.ee
4.r
=333
4r
8b
4b
8dd#
=334
4ee
8b
4b
8dd#
=335
4ee
8dd#
4ee
8dd#
=336
4ee
8dd#
4ee
8dd#
=337
4ee
8dd#
4ee
8dd#
=338
4ee
8dd
4cc#
8b
=339
4a
8a
4a
8b
=340
4cc#
8cc#
4cc#
8dd
=341
4ee
8ee
4ee
8gg#
=342
2.aa
=343
48aa
48gg#[
12gg#]
8r
8gg#
4gg#
8ee
=344
48gg#
48ff#[
12ff#]
8r
8ff#
4ff#
8dd#
=345
4ee
8ee
4ff#
8dd#
=346
2.ee
=347
4g
8g
4g
8a
=348
4b
8b
4b
8cc
=349
4dd
8dd
4dd
8ff#
=350
2.gg
=351
48gg
48ff#[
12ff#]
8r
8ff#
4ff#
8dd
=352
48ff#
48ee[
12ee]
8r
8ee
4ee
8cc#
=353
4dd
8dd
4ee
8cc#
=354
8dd
8f#
8e
8d
8c#
8B
=355
8A
8c#
8e
8c#
8e
8c#
=356
8A
8c#
8e
8c#
8e
8c#
=357
8A
8c#
8e
8c#
8e
8c#
=358
8e
8c#
8e
8c
8e
8c
=359
8B
8e
8g#
8b
8a
8g#
=360
8a
8f#
8d#
8A
8B
8A
=361
8G#
8B
8G#
8A
8B
8A
=362
8G#
8b
8a
8g#
8f#
8e
=363
8b
8B
8d
8B
8d
8B
=364
8G
8B
8d
8B
8d
8B
=365
8G
8B
8d
8B
8d
8B
=366
8d
8B
8d
8B
8d
8B
=367
8A
8d
8f#
8a
8dd
8ff#
=368
8gg
8ee
8cc#
8a
8g
8e
=369
8f#
8a
8f#
8g
8a
8g
=370
8f#
8A
8d
8f#
8a
8cc#
=371
4dd
8dd
4ee
8cc#
=372
2.dd
=373
4ff#
8ff#
4gg
8ee
=374
4ff#
8ff#
4gg
8ee
=375
4ff#
8ff#
4gg
8ee
=376
4ff#
8ff#
4ee
8dd
=377
8cc#
8g#
8a
8b
8a
8g#
=378
2.a
=379
8cc#
8b
8cc#
8dd
8cc#
8b
=380
2.cc#
=381
8cc#
8b
8cc#
8dd
8cc#
8b
=382
8cc#
8b
8cc#
8dd
8cc#
8b
=383
8cc#
8b
8cc#
8dd
8cc#
8b
=384
8cc#
8b
8cc#
8dd
8cc#
8b
=385
8cc#
8b
8cc#
8dd
8cc#
8b
=386
8a
8g#
8a
8b
8a
8g#
=387
8f#
8e#
8f#
8g#
8f#
8e
=388
8d
8c#
8d
8e
8d
8c#
=389
4.e
4.e
=390
4.f#
4.g#
=391
2.ee
=392
2.aa
=393
2.ff#
=394
2.dd
=395
4.b
4.dd[
=396
4.dd]
4.dd[
=397
4.dd]
4.ddd
=398
4.ddd
4.ddd
=399
4.ddd
4.bb
=400
4.gg#
4.ee
=401
4.dd
4.b
=402
4.g#
4.b
=403
4.e
4.dd
=404
*M2/4
2cc#
=405
2ff#
=406
2ee
=407
4dd
4dd
=408
4dd
4dd
=409
8cc#
8b
8a
8b
=410
4cc#
4a
=411
*M6/8
2.r
=412
*M2/4
2r
=413
2r
=414
2r
=415
2r
=416
2r
=417
2r
=418
2r
=419
4dd
4dd
=420
4dd
4dd
=421
8cc#
8b
8a
8b
=422
4cc#
4a
=423
2r
=424
2r
=425
*M6/8
2.r
=426
16g#
16a[
8a]
8a
16g#
16a
16g#
16a[
8a]
=427
16gg#
16aa[
8aa]
8aa
16gg#
16aa
16gg#
16aa[
8aa]
=428
16aa
16gg#
8aa
8gg#
16aa
16gg#
16aa
16ff#
8gg#
=429
4aa
8a
4a
8b
=430
4cc#
8cc#
4cc#
8dd
=431
4.ee
4.r
=432
2.r
=433
4cc#
8cc#
4cc#
8dd
=434
4ee
8ee
4ee
8ff#
=435
2.gg[
=436
4gg]
8ee
4ee
8ff#
=437
2.gg[
=438
4gg]
8ee
4ee
8ff#
=439
4gg
8ee
4ee
8ff#
=440
4gg
8ccc#
4ccc#
8ddd
=441
4eee
8ccc#
4ccc#
8ddd
=442
4eee
8eee
4eee
8fff#
=443
8ggg
8fff#
8eee
8ddd
8ccc#
8bb
=444
4.aa
4.r
=445
8gg
8ff#
8ee
8dd
8cc#
8b
=446
4.a
4.r
=447
2.r
=448
2.r
=449
2.r
=450
2.r
=451
2.r
=452
2.r
=453
2.r
=454
4.r
4r
8d
=455
4d
8d
4d
8d
=456
4d
8d
4d
8e
=457
4.e#
4d
8e
=458
4.e#
4d
8e
=459
8e#
8d
8e
8e#
8d
8e
=460
8e#
8d
8e
8e#
8d
8e
=461
8e#
8d
8e
8e#
8d
8e
=462
8e#
8d
8e
8e#
8d
8e
=463
4.e#
4e
8f#
=464
4.g
4f#
8g#
=465
8a
8g#
8a
8b
8a
8b
=466
8cc
8b
8cc
8dd
8cc
8dd
=467
4.ee
4.r
=468
8ee
8cc#
8dd
8ee
8dd
8cc#
=469
4.dd
4.r
=470
8dd
8b
8cc#
8dd
8cc#
8b
=471
4cc#
8ee
4ee
8cc#
=472
2.a#
=473
4b
8dd
4dd
8b
=474
2.g#
=475
8a
8cc#
8b
8a
8b
8cc#
=476
8g#
8b
8a
8g#
8a
8b
=477
8f#
8a
8g#
8f#
8g#
8a
=478
8e
8g#
8f#
8e
8f#
8g#
=479
2.cc[
=480
2.cc]
=481
2.cc[
=482
2.cc]
=483
4b
8dd
4dd
8ee
=484
4ee#
8dd
4dd
8ee
=485
4ee#
8b
4b
8cc#
=486
4dd
8gg#
4gg#
8aa
=487
2.bb[
=488
2.bb]
=489
2.r
=490
2.r
=491
4.r
4cc#
8dd#
=492
4.ee
4.a
=493
4.g#
4.g
=494
4.f#
4.e
=495
4.f#
8b
8cc#
8b
=496
8a
8b
8a
8g#
8a
8g#
=497
4cc#
8cc#
4cc#
8cc#
=498
4cc#
8cc#
4cc#
8dd#
=499
4.ee
4.aa
=500
4.gg#
4cc#
8dd#
=501
4.ee[
8ee]
8ff#
8ee
=502
8dd
8ee
8dd
8cc#
8dd
8cc#
=503
8b
8cc#
8b
8dd
8ee
8dd
=504
8cc#
8dd
8cc#
8b
8cc#
8b
=505
8a
8b
8a
4.gg
=506
4.ff#
4.ee
=507
4.dd
4.ee#
=508
4.ee
4.dd
=509
4.cc#
8aa#
8gg#
8aa#
=510
8bb
8aa#
8bb
8ccc#
8bb
8ccc#
=511
8ddd
8ccc#
8ddd
8gg#
8ff#
8gg#
=512
8aa
8gg#
8aa
8bb
8aa
8bb
=513
8ccc#
8bb
8ccc#
8ccc#
8bb
8ccc#
=514
8ddd
8ccc#
8ddd
8eee
8ddd
8eee
=515
8fff#
8eee
8fff#
8bb
8aa
8bb
=516
8ccc#
8bb
8ccc#
8ddd
8ccc#
8ddd
=517
4.eee
4.eee[
=518
4.eee]
4.eee[
=519
4.eee]
4.eee
=520
4.eee
4.eee
=521
2.eee[
=522
4.eee]
4ddd
8ccc#
=523
16bb
16ccc#[
8ccc#]
8ccc#
16bb
16ccc#
16bb
16ccc#[
8ccc#]
=524
16ccc#
16bb
8ccc#
8bb
16ccc#
16bb
16ccc#
16bb
8ccc#
=525
4aa
8aa
4aa
8bb
=526
4ccc#
8ccc#
4ccc#
8ddd
=527
2.eee[
=528
4eee]
8ccc#
4ddd
8bb
=529
4aa
8aa
4aa
8bb
=530
4ccc#
8ccc#
4ccc#
8ddd
=531
2.eee[
=532
4eee]
8ccc#
4ddd
8bb
=533
2.eee[
=534
4eee]
8ccc#
4ddd
8bb
=535
8eee
8ee
8ee
8ee
8ee
8ee
=536
8ee
8ee
8cc#
8dd
8dd
8b
=537
4.a
4.r
=538
4.aa
4.r
=539
4.A
4.r
==
*-
